X:525
T: Michael Rilly's
S: "Music from Ireland 3" (Bulmer & Sharpley)
R: reel
M: 4/4
L: 1/8
K: G
G,B,DB, CEGE|DFAF GBdB|ce (3ede dBGB|cABG AGED|
B,2 DB, CEGE|DFAF GBdB|ce e2 dBGB|1 AcBA BG G2 :|2\
AcBA BGGA||
B2 dB eBdB|GB B2 AEGE|DG,B,D EFGB|cdef gfgd|
B2 dB eBdB|GB B2 AEGE|DG,B,D EFGB|cedc BG G2 :|
